!!!!SEGMENT:45Sabishikituioku_c.krn
!!!OTL: 寂しき追憶
!!!OPR:Eiga Banso Kyokusyu,jidai-geki,kouhen
!!!YOY:1928
!!!ONB:Higeki
**kern
*clefG2
*k[]
*C:
*M3/4
=1
16eee'LL
16eee'
16eee'
16eee'JJ
16eee'LL
16eee'
16eee'
16eee'JJ
16eee'LL
16eee'
16eee'
16eee'JJ
=2
16eee'LL
16eee'
16eee'
16eee'JJ
16eee'LL
16eee'
16eee'
16eee'JJ
16eee'LL
16eee'
16eee'
16eee'JJ
=3!|:
8r
8e
(4e
8AL
8BJ)
=4
(8cL
8BJ)
[2A
=5
8AL]
8e'~J
8A'~L
8B'~J
8c'~L
8d'~J
=6
(8.eL
(8qg/
16fJk)
2e)
=7
(4.e
8d
8cL
8dJ)
=8
2.e
=9
(4.e
8d
8cL
8AJ)
=10
(8qG#X/
2.B)
=11
8r
8e
(4e
8AL
8BJ)
=12
8cL
8BJ
[2A
=13
8AL]
8e'~J
8A'~L
8B'~J
8c'~L
8d'~J
=14
(8.eL
(8qg/
16fJk)
2e)
=15
(4.e
8d
8cL
8dJ)
=16
2.e
=17
(4.e
8d
8cL
8dJ)
=18
[2.e
=19
8e]
8r
4r
4r
=20
2.ee
==
*-
!!!ENC: Yukiko Yoden
!!!END: 2023/06/11
